dist/images/header/menu-second.svg

<svg width="28" height="16" viewBox="0 0 28 16" fill="none" xmlns="http://www.w3.org/2000/svg">
<path d="M0.666992 0H27.3337V2.66667H0.666992V0ZM7.33366 6.66667H27.3337V9.33333H7.33366V6.66667ZM15.667 13.3333H27.3337V16H15.667V13.3333Z" fill="black"/>
</svg>

<svg width="28" height="16" fill="none" xmlns="http://www.w3.org/2000/svg"><path d="M.667 0h26.667v2.667H.667V0zm6.667 6.667h20v2.666h-20V6.667zm8.333 6.666h11.667V16H15.667v-2.667z" fill="#000"/></svg>
